www/assets/icons/smoke_free.svg

<svg xmlns="http://www.w3.org/2000/svg" width="24" height="24" viewBox="0 0 24 24" fill='currentColor'><path d="m2 5.5 6.99 7H2v3h9.99l7 7 1.26-1.25-17-17zm18.5 7H22v3h-1.5zm-2.5 0h1.5v3H18zm.85-8.12c.62-.61 1-1.45 1-2.38h-1.5c0 1.02-.83 1.85-1.85 1.85v1.5c2.24 0 4 1.83 4 4.07v2.08H22V9.42c0-2.23-1.28-4.15-3.15-5.04M14.5 8.2h1.53c1.05 0 1.97.74 1.97 2.05v1.25h1.5V9.91c0-1.8-1.6-3.16-3.47-3.16H14.5c-1.02 0-1.85-.98-1.85-2S13.48 3 14.5 3V1.5a3.35 3.35 0 0 0 0 6.7m2.5 7.23V12.5h-2.93z"/></svg>

<svg width="24" height="24" viewBox="0 0 24 24" xmlns="http://www.w3.org/2000/svg" fill='currentColor'><path d="M2 5.5L8.99 12.5H2V15.5H11.99L18.99 22.5L20.25 21.25L3.25 4.25L2 5.5ZM20.5 12.5H22V15.5H20.5V12.5ZM18 12.5H19.5V15.5H18V12.5ZM18.85 4.38C19.47 3.77 19.85 2.93 19.85 2H18.35C18.35 3.02 17.52 3.85 16.5 3.85V5.35C18.74 5.35 20.5 7.18 20.5 9.42V11.5H22V9.42C22 7.19 20.72 5.27 18.85 4.38ZM14.5 8.2H16.03C17.08 8.2 18 8.94 18 10.25V11.5H19.5V9.91C19.5 8.11 17.9 6.75 16.03 6.75H14.5C13.48 6.75 12.65 5.77 12.65 4.75C12.65 3.73 13.48 3 14.5 3V1.5C12.65 1.5 11.15 3 11.15 4.85C11.15 6.7 12.65 8.2 14.5 8.2ZM17 15.43V12.5H14.07L17 15.43Z"/></svg>
